assets/featuresBg3.svg

<svg width="570" height="197" viewBox="0 0 570 197" fill="none" xmlns="http://www.w3.org/2000/svg">
<g clip-path="url(#clip0)">
<rect x="5" y="5" width="560" height="187" fill="#FFC856" stroke="#007550" stroke-width="10"/>
<rect width="570" height="197" fill="#FF513F"/>
<g style="mix-blend-mode:multiply" opacity="0.31">
<path d="M33 197L3.05772e-05 145L0 197H33Z" fill="#FF513F"/>
</g>
<g style="mix-blend-mode:multiply" opacity="0.3">
<path d="M360 0L570 140V0H360Z" fill="#FF513F"/>
</g>
<g style="mix-blend-mode:multiply" opacity="0.17">
<path d="M20 28.5L67.5 0H0L20 28.5Z" fill="#FF513F"/>
</g>
<g style="mix-blend-mode:overlay" opacity="0.3">
<path d="M510.884 15.5603L559.472 51.8124L503.782 75.7647L510.884 15.5603Z" fill="white"/>
</g>
<g style="mix-blend-mode:overlay" opacity="0.1">
<path d="M385.451 55.6209L378.36 80.1316L360.678 61.7356L385.451 55.6209Z" fill="white"/>
</g>
<g style="mix-blend-mode:overlay" opacity="0.5">
<path d="M6.75785 129.366L28.8551 142.124L6.75785 154.881L6.75785 129.366Z" fill="white"/>
</g>
<g style="mix-blend-mode:screen" opacity="0.2">
<rect x="467.824" y="110.735" width="64" height="64" transform="rotate(24.0573 467.824 110.735)" fill="#FFC856"/>
</g>
<g style="mix-blend-mode:screen" opacity="0.2">
<rect x="47" y="-22.5662" width="96.8993" height="96.8993" transform="rotate(-24.0138 47 -22.5662)" fill="#FFC856"/>
</g>
<g style="mix-blend-mode:screen" opacity="0.7">
<g opacity="0.2">
<path d="M69.0481 79.5L13.457 79.5L13.457 1.5L69.0481 1.5L41.0863 40.2072L40.8748 40.5L41.0863 40.7928L69.0481 79.5Z" stroke="white"/>
<path d="M95.8773 40.2072L95.6658 40.5L95.8773 40.7928L123.839 79.5H96.5383L68.3649 40.5L96.5382 1.5L123.839 1.5L95.8773 40.2072Z" stroke="white"/>
<path d="M152.947 40.2071L152.736 40.4991L152.946 40.7916L167.173 60.5979L168.079 61.8594V60.3062V20.8062V19.2602L167.174 20.5134L152.947 40.2071ZM195.695 60.1937V61.7468L196.601 60.4854L210.828 40.6791L211.038 40.3866L210.827 40.0946L196.6 20.4009L195.695 19.1477V20.6937V60.1937ZM196.195 1.49994L210.166 1.49994L238.339 40.4999L210.166 79.4999L196.195 79.4999H181.968H167.742H153.771L125.597 40.4999L153.771 1.49994L167.742 1.49994L181.968 1.49994L196.195 1.49994Z" stroke="white"/>
</g>
<g opacity="0.2">
<path d="M302.048 79.5L246.457 79.5L246.457 1.5L302.048 1.5L274.086 40.2072L273.875 40.5L274.086 40.7928L302.048 79.5Z" stroke="white"/>
<path d="M328.877 40.2072L328.666 40.5L328.877 40.7928L356.839 79.5H329.538L301.365 40.5L329.538 1.5L356.839 1.5L328.877 40.2072Z" stroke="white"/>
<path d="M385.947 40.2071L385.736 40.4991L385.946 40.7916L400.173 60.5979L401.079 61.8594V60.3062V20.8062V19.2602L400.174 20.5134L385.947 40.2071ZM428.695 60.1937V61.7468L429.601 60.4854L443.828 40.6791L444.038 40.3866L443.827 40.0946L429.6 20.4009L428.695 19.1477V20.6937V60.1937ZM429.195 1.49994L443.166 1.49994L471.339 40.4999L443.166 79.4999L429.195 79.4999H414.968H400.742H386.771L358.597 40.4999L386.771 1.49994L400.742 1.49994L414.968 1.49994L429.195 1.49994Z" stroke="white"/>
</g>
<g opacity="0.2">
<path d="M518.023 194.5H592.301V90.5L518.023 90.5L555.329 142.207L555.54 142.5L555.329 142.793L518.023 194.5Z" stroke="white"/>
<path d="M482.596 142.207L482.807 142.5L482.596 142.793L445.29 194.5H481.935L519.452 142.5L481.935 90.5H445.29L482.596 142.207Z" stroke="white"/>
<path d="M406.84 142.207L407.051 142.499L406.841 142.791L387.956 169.116L387.05 170.379V168.825V116.325V114.777L387.955 116.032L406.84 142.207ZM350.064 168.675V170.23L349.158 168.967L330.273 142.642L330.063 142.35L330.274 142.058L349.159 115.883L350.064 114.628V116.175V168.675ZM349.564 90.4999H330.935L293.418 142.5L330.935 194.5H349.564L368.449 194.5H387.334H405.963L443.48 142.5L405.963 90.4999H387.334H368.449L349.564 90.4999Z" stroke="white"/>
</g>
<g opacity="0.2">
<path d="M535.048 79.5L479.457 79.5V1.5L535.048 1.5L507.086 40.2072L506.875 40.5L507.086 40.7928L535.048 79.5Z" stroke="white"/>
<path d="M561.877 40.2072L561.666 40.5L561.877 40.7928L589.839 79.5H562.538L534.365 40.5L562.538 1.5L589.839 1.5L561.877 40.2072Z" stroke="white"/>
</g>
<g opacity="0.2">
<path d="M208.023 194.5H282.301L282.301 90.5L208.023 90.5L245.329 142.207L245.54 142.5L245.329 142.793L208.023 194.5Z" stroke="white"/>
<path d="M172.596 142.207L172.807 142.5L172.596 142.793L135.29 194.5H171.935L209.452 142.5L171.935 90.5H135.29L172.596 142.207Z" stroke="white"/>
<path d="M96.8403 142.207L97.0507 142.499L96.8411 142.791L77.9562 169.116L77.0499 170.379V168.825L77.0499 116.325V114.777L77.9554 116.032L96.8403 142.207ZM40.0642 168.675V170.23L39.158 168.967L20.2731 142.642L20.0634 142.35L20.2739 142.058L39.1588 115.883L40.0642 114.628L40.0642 116.175L40.0642 168.675ZM39.5642 90.4999H20.9351L-16.5818 142.5L20.9351 194.5H39.5642L58.4491 194.5H77.3341H95.9632L133.48 142.5L95.9632 90.4999H77.3341H58.4491L39.5642 90.4999Z" stroke="white"/>
</g>
</g>
</g>
<defs>
<clipPath id="clip0">
<rect width="570" height="197" fill="white"/>
</clipPath>
</defs>
</svg>

<svg xmlns="http://www.w3.org/2000/svg" width="570" height="197" fill="none" xmlns:v="https://vecta.io/nano"><g clip-path="url(#A)"><path fill="#ffc856" stroke="#007550" stroke-width="10" d="M5 5h560v187H5z"/><path fill="#ff513f" d="M0 0h570v197H0z"/><g style="mix-blend-mode:multiply" opacity=".3"><path d="M33 197L0 145v52h33z" fill="#ff513f"/></g><g style="mix-blend-mode:multiply" opacity=".3"><path d="M360 0L570 140V0H360Z" fill="#ff513f"/></g><g style="mix-blend-mode:multiply" opacity=".17"><path d="M20 28.5L67.5 0H0L20 28.5Z" fill="#ff513f"/></g><g style="mix-blend-mode:overlay" opacity=".3"><path d="M510.884 15.56l48.588 36.252-55.7 23.952 7.102-60.204z" fill="#fff"/></g><g style="mix-blend-mode:overlay" opacity=".1"><path d="M385.45 55.62l-7.09 24.51-17.682-18.396 24.773-6.115z" fill="#fff"/></g><g style="mix-blend-mode:overlay" opacity=".5"><path d="M6.758 129.366l22.097 12.758L6.758 154.88v-25.515z" fill="#fff"/></g><g style="mix-blend-mode:screen" opacity=".2"><path fill="#ffc856" d="M467.824 110.735l58.44 26.1-26.1 58.44-58.44-26.1z"/></g><g style="mix-blend-mode:screen" opacity=".2"><path fill="#ffc856" d="M47-22.566L135.512-62l39.434 88.512-88.512 39.434z"/></g><g style="mix-blend-mode:screen" opacity=".7"><g opacity=".2" stroke="#fff"><path d="M69.048 79.5h-55.6v-78h55.6l-28.173 39 28.173 39zm26.83-39.293l-.212.293 28.173 39h-27.3l-28.173-39 28.173-39h27.3l-27.96 38.707zm57.07 0l-.2.292 15.343 21.36v-42.6l-15.132 20.947zm42.748 19.987v1.553l15.343-21.36-.2-.292-15.132-20.947v41.046zm.5-58.694h13.97l28.173 39-28.173 39H153.77l-28.174-39 28.174-39h42.424z"/></g><g opacity=".2" stroke="#fff"><path d="M302.048 79.5h-55.6v-78h55.6l-28.173 39 .2.293L302.048 79.5zm26.83-39.293l-.2.293.2.293L356.84 79.5h-27.3l-28.173-39 28.173-39h27.3l-27.962 38.707zm57.07 0l-.2.292 15.343 21.36v-42.6l-15.132 20.947zm42.748 19.987v1.553l15.343-21.36-.2-.292-15.132-20.947v41.046zm.5-58.694h13.97l28.173 39-28.173 39H386.77l-28.174-39 28.174-39h42.424z"/></g><g opacity=".2" stroke="#fff"><path d="M518.023 194.5H592.3v-104h-74.278l37.517 52-.2.293-37.306 51.707zm-35.427-52.293l.2.293-.2.293L445.3 194.5h36.645l37.517-52-37.517-52H445.3l37.306 51.707zm-75.756 0l.2.292-.2.292-19.8 27.588v-55.602l19.8 27.43zm-56.776 26.468v1.555l-20-27.88.2-.292 19.8-27.43v54.047zm-.5-78.175h-18.63l-37.517 52 37.517 52h75.028l37.517-52-37.517-52h-56.4z"/></g><g opacity=".2" stroke="#fff"><path d="M535.048 79.5h-55.6v-78h55.6l-28.173 39 .2.293L535.048 79.5zm26.83-39.293l-.2.293.2.293L589.84 79.5h-27.3l-28.173-39 28.173-39h27.3l-27.962 38.707z"/></g><g opacity=".2" stroke="#fff"><path d="M208.023 194.5H282.3v-104h-74.278l37.517 52-.2.293-37.306 51.707zm-35.427-52.293l.2.293-.2.293L135.3 194.5h36.645l37.517-52-37.517-52H135.3l37.306 51.707zm-75.756 0l.2.292-20 27.88v-55.602l19.8 27.43zm-56.776 26.468v1.555l-20-27.88 20-27.722v54.047zm-.5-78.175h-18.63l-37.517 52 37.517 52h75.028l37.517-52-37.517-52h-56.4z"/></g></g></g><defs><clipPath id="A"><path fill="#fff" d="M0 0h570v197H0z"/></clipPath></defs></svg>
